src/assets/images/icons/shield-star-line.svg

<svg width="24" height="24" viewBox="0 0 24 24" fill="none" xmlns="http://www.w3.org/2000/svg">
<g clip-path="url(#clip0_58_16672)">
<path d="M5 4.604V13.789C5.00001 14.4475 5.16257 15.0957 5.47326 15.6763C5.78395 16.2568 6.23315 16.7517 6.781 17.117L12 20.597L17.219 17.117C17.7667 16.7518 18.2158 16.2571 18.5265 15.6767C18.8372 15.0964 18.9998 14.4483 19 13.79V4.604L12 3.05L5 4.604ZM3.783 2.826L12 1L20.217 2.826C20.4391 2.87536 20.6377 2.99897 20.78 3.1764C20.9224 3.35384 21 3.57452 21 3.802V13.789C20.9999 14.7767 20.756 15.7492 20.2899 16.62C19.8238 17.4908 19.1499 18.2331 18.328 18.781L12 23L5.672 18.781C4.85027 18.2332 4.17646 17.4911 3.71035 16.6205C3.24424 15.7498 3.00024 14.7776 3 13.79V3.802C3.00004 3.57452 3.07764 3.35384 3.21999 3.1764C3.36234 2.99897 3.56094 2.87536 3.783 2.826ZM12 13.5L9.061 15.045L9.622 11.773L7.245 9.455L10.531 8.977L12 6L13.47 8.977L16.755 9.455L14.378 11.773L14.938 15.045L12 13.5Z" fill="#181D27"/>
</g>
<defs>
<clipPath id="clip0_58_16672">
<rect width="24" height="24" fill="white"/>
</clipPath>
</defs>
</svg>

<svg xmlns="http://www.w3.org/2000/svg" width="24" height="24" fill="none" viewBox="0 0 24 24"><g clip-path="url(#a)"><path fill="#181d27" d="M5 4.604v9.185a4 4 0 0 0 1.781 3.328L12 20.597l5.219-3.48A4 4 0 0 0 19 13.79V4.604L12 3.05zM3.783 2.826 12 1l8.217 1.826a1 1 0 0 1 .783.976v9.987a6 6 0 0 1-2.672 4.992L12 23l-6.328-4.219A6 6 0 0 1 3 13.79V3.802a1 1 0 0 1 .783-.976M12 13.5l-2.939 1.545.561-3.272-2.377-2.318 3.286-.478L12 6l1.47 2.977 3.285.478-2.377 2.318.56 3.272z"/></g><defs><clipPath id="a"><path fill="#fff" d="M0 0h24v24H0z"/></clipPath></defs></svg>
